src/assets/imgs/icons/pix.svg

<svg width="24" height="24" viewBox="0 0 24 24" fill="none" xmlns="http://www.w3.org/2000/svg">
<path d="M15.45 16.5201L12.44 13.5101C12.33 13.4001 12.2 13.3801 12.13 13.3801C12.06 13.3801 11.93 13.4001 11.82 13.5101L8.80003 16.5301C8.46003 16.8701 7.93003 17.4201 6.16003 17.4201L9.87003 21.1201C10.4325 21.6819 11.195 21.9975 11.99 21.9975C12.785 21.9975 13.5475 21.6819 14.11 21.1201L17.83 17.4101C16.92 17.4101 16.16 17.2301 15.45 16.5201ZM8.80003 7.47009L11.82 10.4901C11.9 10.5701 12.02 10.6201 12.13 10.6201C12.24 10.6201 12.36 10.5701 12.44 10.4901L15.43 7.50009C16.14 6.76009 16.95 6.59009 17.86 6.59009L14.14 2.88009C13.5775 2.31829 12.815 2.00273 12.02 2.00273C11.225 2.00273 10.4625 2.31829 9.90003 2.88009L6.19003 6.58009C7.95003 6.58009 8.49003 7.16009 8.80003 7.47009Z" fill="#2E384C"/>
<path d="M21.11 9.8501L18.86 7.5901H17.6C17.06 7.5901 16.52 7.8101 16.15 8.2001L13.15 11.2001C12.87 11.4801 12.5 11.6201 12.13 11.6201C11.749 11.6147 11.3844 11.4646 11.11 11.2001L8.09005 8.1701C7.71005 7.7901 7.19005 7.5701 6.64005 7.5701H5.17005L2.88005 9.8701C2.31824 10.4326 2.00269 11.1951 2.00269 11.9901C2.00269 12.7851 2.31824 13.5476 2.88005 14.1101L5.17005 16.4101H6.65005C7.19005 16.4101 7.71005 16.1901 8.10005 15.8101L11.12 12.7901C11.4 12.5101 11.77 12.3701 12.14 12.3701C12.51 12.3701 12.88 12.5101 13.16 12.7901L16.17 15.8001C16.55 16.1801 17.07 16.4001 17.62 16.4001H18.88L21.13 14.1401C21.6942 13.5675 22.0088 12.7948 22.005 11.991C22.0013 11.1871 21.6795 10.4174 21.11 9.8501Z" fill="#2E384C"/>
</svg>

<?xml version="1.0" encoding="utf-8"?>
<!-- Generator: Adobe Illustrator 25.4.1, SVG Export Plug-In . SVG Version: 6.00 Build 0)  -->
<svg version="1.1" id="Camada_1" xmlns="http://www.w3.org/2000/svg" xmlns:xlink="http://www.w3.org/1999/xlink" x="0px" y="0px"
	 viewBox="0 0 24 24" style="enable-background:new 0 0 24 24;" xml:space="preserve">
<style type="text/css">
	.st0{fill:#FFFFFF;}
</style>
<path class="st0" d="M15.4,16.5l-3-3c-0.1-0.1-0.2-0.1-0.3-0.1s-0.2,0-0.3,0.1l-3,3c-0.3,0.3-0.9,0.9-2.6,0.9l3.7,3.7
	c0.6,0.6,1.3,0.9,2.1,0.9s1.6-0.3,2.1-0.9l3.7-3.7C16.9,17.4,16.2,17.2,15.4,16.5z M8.8,7.5l3,3c0.1,0.1,0.2,0.1,0.3,0.1
	s0.2-0.1,0.3-0.1l3-3c0.7-0.7,1.5-0.9,2.4-0.9l-3.7-3.7C13.6,2.3,12.8,2,12,2c-0.8,0-1.6,0.3-2.1,0.9L6.2,6.6C8,6.6,8.5,7.2,8.8,7.5
	z"/>
<path class="st0" d="M21.1,9.9l-2.2-2.3h-1.3c-0.5,0-1.1,0.2-1.5,0.6l-3,3c-0.3,0.3-0.6,0.4-1,0.4c-0.4,0-0.7-0.2-1-0.4l-3-3
	C7.7,7.8,7.2,7.6,6.6,7.6H5.2L2.9,9.9C2.3,10.4,2,11.2,2,12s0.3,1.6,0.9,2.1l2.3,2.3h1.5c0.5,0,1.1-0.2,1.4-0.6l3-3
	c0.3-0.3,0.7-0.4,1-0.4s0.7,0.1,1,0.4l3,3c0.4,0.4,0.9,0.6,1.5,0.6h1.3l2.2-2.3c0.6-0.6,0.9-1.3,0.9-2.1C22,11.2,21.7,10.4,21.1,9.9
	z"/>
</svg>
